X: 19069
T: Iris Nicolson's Favourite
R: march
M: 
K: Dmajor
M:2/4
F>E|DD D/E/F/G/|AA Ad/e/|fe dF|G2- GG/F/|
EE E/F/G/A/|cc cB/c/|BA AG|F2 E2|
DD D/E/F/G/|AA Ad/e/|fg/f/ ed|B2- Be/f/|
ga/g/ fe|dd cB|Ac/a/ gc|d2||
|:f>g|aa ^ga|fd AF|DF/A/ dF|G2- Ge/f/|
gg fe|dd cB|1 Ac/e/ ag|f2:|2 Ac/a/ gc|d2||

